icon-themes/breeze_svg/cmd/sc_grafluminance.svg

<svg viewBox="0 0 16 16" xmlns="http://www.w3.org/2000/svg">/&gt;<path d="m7.5 2v1h1v-1zm-3.375 1.4375c-.2479.21075-.47675.4396-.6875.6875l.71875.71875c.20379-.24694.44056-.48371.6875-.6875zm7.75 0-.71875.71875c.24694.20379.48371.44056.6875.6875l.71875-.71875c-.21074-.2479-.4396-.47675-.6875-.6875zm-3.875.5625c-2.20914 0-4 1.79086-4 4s1.79086 4 4 4 4-1.79086 4-4-1.79086-4-4-4zm0 1v6c-1.65685 0-3-1.34315-3-3s1.34315-3 3-3zm-6 2.5v1h1v-1zm11 0v1h1v-1zm-8.84375 3.65625-.71875.71875c.21075.2479.4396.47676.6875.6875l.71875-.71875c-.24694-.20379-.48371-.44056-.6875-.6875zm7.6875 0c-.20379.24694-.44056.48371-.6875.6875l.71875.71875c.2479-.21074.47676-.4396.6875-.6875zm-4.34375 1.84375v1h1v-1z" fill="#4d4d4d"/></svg>

<svg xmlns="http://www.w3.org/2000/svg" viewBox="0 0 16 16">
     />
 <path 
     style="fill:#4d4d4d" 
     d="M 7.5 2 L 7.5 3 L 8.5 3 L 8.5 2 L 7.5 2 z M 4.125 3.4375 C 3.8771 3.64825 3.64825 3.8771 3.4375 4.125 L 4.15625 4.84375 C 4.36004 4.59681 4.59681 4.36004 4.84375 4.15625 L 4.125 3.4375 z M 11.875 3.4375 L 11.15625 4.15625 C 11.40319 4.36004 11.63996 4.59681 11.84375 4.84375 L 12.5625 4.125 C 12.35176 3.8771 12.1229 3.64825 11.875 3.4375 z M 8 4 C 5.79086 4 4 5.79086 4 8 C 4 10.20914 5.79086 12 8 12 C 10.20914 12 12 10.20914 12 8 C 12 5.79086 10.20914 4 8 4 z M 8 5 L 8 11 C 6.34315 11 5 9.65685 5 8 C 5 6.34315 6.34315 5 8 5 z M 2 7.5 L 2 8.5 L 3 8.5 L 3 7.5 L 2 7.5 z M 13 7.5 L 13 8.5 L 14 8.5 L 14 7.5 L 13 7.5 z M 4.15625 11.15625 L 3.4375 11.875 C 3.64825 12.1229 3.8771 12.35176 4.125 12.5625 L 4.84375 11.84375 C 4.59681 11.63996 4.36004 11.40319 4.15625 11.15625 z M 11.84375 11.15625 C 11.63996 11.40319 11.40319 11.63996 11.15625 11.84375 L 11.875 12.5625 C 12.1229 12.35176 12.35176 12.1229 12.5625 11.875 L 11.84375 11.15625 z M 7.5 13 L 7.5 14 L 8.5 14 L 8.5 13 L 7.5 13 z "
     />
 </svg>
